X:0901
T:Miss Clemy Stewart's Reel
P:Miss Clementina Stewart's Reel
C:Malcolm Macdonald's 2nd Coll., 1790-1794
R:Reel (8x32)
B:RSCDS 9-1
Z:Anselm Lingnau <anselm@strathspey.org>
M:C|
L:1/8
K:A
E|"A"A2ce aecA|cecA "E7"GBGE|"A"A2ce aecA|"E7"ceBG "A"A2 AE|
  "A"A2ce aecA|cecA "E7"GBGE|"A"A2ce aecA|"E7"ceBG "A"A2 A||
e|"A"aecA ceag|ac'"B"fa "E7"bage|"A"aece aee'd'|"E7"c'bag "A"a2 ag|
  "A"aece "D"dafd|"A"cecA "E7"GBGE|"A"aece "D"dafd|"E7"ceBG A2 A|]

